X:0072
T:Quick Step.  La Prominade.
M:6/8
L:1/8
Q:3/8=84
I: :: :|
% G A B ^c d e ^f g a b
Z:Jack Campin * www.campin.me.uk * 2009
K:D
d2a f2e|f2g f2e|d2a f2d|e2A d3:|
e2f e2d|e2f e2d|d2e f2e|f2g a3 |
d2a f2e|f2g f2e|d2a f2d|e2A d3:|
ded d2e|fgf f2e|d2A dgf|edc d3:|
aba a3 |ABA A3 |gag g3 |GAG G3 |
d2A d2e|fgf f2e|d2A dgf|edc d3:|
<end>
<start>
